X:5710
T:Gan Ainm
R:Jig
S:(Niall Keegan)
H:
N:
D:
Z:Adrian Scahill
M:6/8
L:1/8
K:C
A3 AGA|c2B A3|B3 BAG|B3 BAG|\
A3 AGA|c2B A3|B3 EFG|A3 A3:||
c3 dcd|efe dcB|cBA cBA|B3 BAG|
c3 dcd|efe dcB|cBA EFG|A3 A3:||


